X: 95
T: Sweetbread Sally
%%VWML:Wrights-3753-p48-0
F: http://www.vwml.org/record/Wrights/3753/p48
%R: march, reel
B: Daniel Wright "Wright's Compleat Collection of Celebrated Country Dances" 1740 p.48
S: http://library.efdss.org/cgi-bin/dancebooks.cgi
Z: 2014 John Chambers <jc:trillian.mit.edu>
M: C
L: 1/8
K: G
%-------------------------
Bc | d2B2 G2E2 | c2A2 F2D2 | f2d2 ^cde^c | d2 D4 |]\
ga |\
b2G2 F2a2 | g2E2 D2ef | g2 E4 g2 | f2 D4 CB, |\
C2e2 B,2d2 | A,2c2 G,2B2 | A2G2 FGAF | G2 G,4 |]
%-------------------------
%%begintext align
%% The two 1st Men make two Hops on their
%% own sides, the two 1st We. do the same at
%% the same time .| then all four turn single,
%% and Back to Back to your Partners, then
%% all four turn single :| then the 1st Cu. cross
%% over and lead the 2d Cu. to the Wall .| then
%% Right and Left quite round :| And so
%% forward to the End.
%%endtext
%-------------------------
%%sep 2 4 300
T: Past One a Clock
T: Longways for as many as will.
%R: jig
B: Daniel Wright "Wright's Compleat Collection of Celebrated Country Dances" 1740 p.48
S: http://library.efdss.org/cgi-bin/dancebooks.cgi
Z: 2014 John Chambers <jc:trillian.mit.edu>
N: Repeats added to fit the tune to the dance.
M: 6/4
L: 1/4
K: G
%-------------------------
|:\
DGG G2B | ABG E2D |\
E/F/GG B/c/de | {B}A2G G3 ::\
=f>g(=f/g/) e2d | def ged |
dgg g2e | dBG GED |\
=f>g(=f/g/) e2g | dBG GED |\
(E/F/)GG (B/c/)de | {B}A2G G3 :|
%-------------------------
%%begintext align
%% The 1st Man turn the 2d Wo. .| then the
%% 2d Man turn the 1st Wo. :| then the 1st Cu.
%% cast off and lead thro' the 3d Cu. and
%% cast up into the 2d Cu. Place and turn
%% Hands .| then lead thro' the 2d Cu. and cast
%% off, and Right and Left quite round :|
%%endtext
%-------------------------
%%sep 2 4 300
